X: 1
T: Sonja's Kitchen
R: Reel
M: 4/4
L: 1/8
K: Emin
r: 32
E3F G3A|B3d e3f|gfeg fedf|edB^c dBAF|
E3F G3A|B3d e3f|gfeg fede|fagf e4:|
geBe geBe|gece gece|afdB ABdf|afdB ABdf|
geBe geBe|gece gece|afdB ABde|fagf e4:|
Z: Mackin via the Session
